#src/img/common/order.svg

<svg width="24" height="24" fill="none" xmlns="http://www.w3.org/2000/svg"><path d="M8.7 7h-2v2h2V7zm8.6 2V7h-6.7v2h6.7zm-8.6 2h-2v2h2v-2zm8.6 2v-2h-6.7v2h6.7zm-8.6 2h-2v2h2v-2zm8.6 2v-2h-6.7v2h6.7z" fill="#202020"/><path d="M19.4 4.6v14.7H4.7V4.6h14.7zm2-2H2.7v18.7h18.7V2.6z" fill="#202020"/></svg>

<svg width="24" height="24" viewBox="0 0 24 24" fill="none" xmlns="http://www.w3.org/2000/svg">
  <path d="M8.7 7H6.7V9H8.7V7Z" fill="#202020"/>
  <path d="M17.3 9V7H10.6V9H17.3Z" fill="#202020"/>
  <path d="M8.7 11H6.7V13H8.7V11Z" fill="#202020"/>
  <path d="M17.3 13V11H10.6V13H17.3Z" fill="#202020"/>
  <path d="M8.7 15H6.7V17H8.7V15Z" fill="#202020"/>
  <path d="M17.3 17V15H10.6V17H17.3Z" fill="#202020"/>
  <path d="M19.4 4.59998V19.3H4.7V4.59998H19.4ZM21.4 2.59998H2.7V21.3H21.4V2.59998Z" fill="#202020"/>
</svg>
